assets/visual-studio-code.svg

<svg height="288" width="288" xmlns="http://www.w3.org/2000/svg" xmlns:xlink="http://www.w3.org/1999/xlink"><linearGradient id="a" x1="50%" x2="50%" y1="0%" y2="100%"><stop offset="0" stop-color="#fff"/><stop offset="1" stop-color="#fff" stop-opacity="0"/></linearGradient><mask id="b" fill="#fff"><path d="m180.82764 252.605272c4.016311 1.564887 8.59642 1.46428 12.650584-.486102l52.500918-25.262319c5.516451-2.65463 9.024747-8.238817 9.024747-14.363891v-171.2957755c0-6.1252732-3.508296-11.7085634-9.024747-14.3631938l-52.500918-25.26330519c-5.320218-2.55994222-11.546895-1.93291555-16.215658 1.46166039-.667393.48492576-1.302911 1.02635082-1.898584 1.62302008l-100.5073927 91.69447842-43.7787891-33.2316887c-4.0753805-3.0935159-9.7757136-2.8401058-13.5607284.6029448l-14.04129121 12.772607c-4.62980482 4.2115486-4.63511408 11.4951968-.01146521 15.713519l37.96644362 34.6372985-37.96644362 34.637696c-4.62364887 4.218521-4.61833961 11.50207.01146521 15.713619l14.04129121 12.772109c3.7850148 3.443548 9.4853479 3.69656 13.5607284.603642l43.7787891-33.232187 100.5073927 91.694817c1.58979 1.590786 3.456498 2.789105 5.463658 3.571051zm10.464124-183.6493202-76.262101 57.8885732 76.262101 57.888871z" fill="#fff"/></mask><svg height="288" preserveAspectRatio="xMidYMid" viewBox="0 0 256 254" width="288" xmlns="http://www.w3.org/2000/svg" xmlns:xlink="http://www.w3.org/1999/xlink"><path d="m246.134784 26.873337-52.541759-25.29809927c-6.081245-2.92824355-13.349852-1.69304554-18.123206 3.07990911l-172.00340183 156.82707416c-4.62645789 4.218521-4.62113867 11.50207.01147518 15.713619l14.04978805 12.772109c3.7874054 3.443548 9.4912249 3.69656 13.5689961.603642l207.1319905-157.1352905c6.948856-5.2716078 16.929868-.3153681 16.929868 8.4069603v-.6100172c0-6.1225836-3.5073-11.7038817-9.023751-14.3599066z" fill="#252525" mask="url(#b)"/><path d="m246.134784 226.816011-52.541759 25.298179c-6.081245 2.927564-13.349852 1.692389-18.123206-3.079969l-172.00340183-156.8271937c-4.62645789-4.2182226-4.62113867-11.50207.01147518-15.7135191l14.04978805-12.772607c3.7874054-3.4430506 9.4912249-3.6965603 13.5689961-.6029447l207.1319905 157.1346925c6.948856 5.271409 16.929868.315767 16.929868-8.407159v.610614c0 6.122086-3.5073 11.703284-9.023751 14.359907z" fill="#b7b7b7" mask="url(#b)"/><path d="m193.428324 252.134497c-6.083238 2.925572-13.351845 1.689401-18.125199-3.083953 5.881028 5.881027 15.937743 1.715299 15.937743-6.60221v-231.1753717c0-8.31753961-10.056715-12.48301323-15.937743-6.60160249 4.773354-4.77339792 12.041961-6.01033911 18.125199-3.08468047l52.532793 25.26333506c5.520436 2.6546304 9.030724 8.2379207 9.030724 14.3631938v171.2960748c0 6.125074-3.510288 11.708265-9.030724 14.362895z" fill="#d8d8d8" mask="url(#b)"/><path d="m180.827889 252.605272c4.016311 1.563891 8.59642 1.46428 12.649587-.486102l52.500919-25.263315c5.517447-2.65463 9.025743-8.237821 9.025743-14.362895v-171.2959747c0-6.1252732-3.508296-11.7085634-9.024747-14.3631938l-52.501915-25.26326537c-5.319221-2.55994919-11.545898-1.93292252-16.215657 1.46165043-.666397.48492576-1.301915 1.02635082-1.898584 1.62302008l-100.5066955 91.69444856-43.7787891-33.2316887c-4.0752809-3.093516-9.7757136-2.8400062-13.5607284.6029447l-14.0412414 12.772607c-4.62980483 4.2115487-4.63511409 11.4952965-.01146521 15.7136187l37.96649341 34.6373981-37.96649341 34.637696c-4.62364888 4.218521-4.61833962 11.50207.01146521 15.713619l14.0412414 12.772109c3.7850148 3.443548 9.4854475 3.69656 13.5607284.603642l43.7787891-33.232187 100.5066955 91.694817c1.58979 1.590786 3.457494 2.789105 5.464654 3.571051zm10.464124-183.6495194-76.262101 57.8887724 76.262101 57.888871z" fill="url(#a)" fill-opacity=".25" mask="url(#b)"/></svg></svg>

<?xml version="1.0" encoding="UTF-8"?>
<svg width="256px" height="254px" viewBox="0 0 256 254" version="1.1" xmlns="http://www.w3.org/2000/svg" xmlns:xlink="http://www.w3.org/1999/xlink" preserveAspectRatio="xMidYMid">
    <defs>
        <path d="M180.82764,252.605272 C184.843951,254.170159 189.42406,254.069552 193.478224,252.11917 L245.979142,226.856851 C251.495593,224.202221 255.003889,218.618034 255.003889,212.49296 L255.003889,41.1971845 C255.003889,35.0719113 251.495593,29.4886211 245.979142,26.8339907 L193.478224,1.57068551 C188.158006,-0.989256713 181.931329,-0.362230036 177.262566,3.0323459 C176.595173,3.51727166 175.959655,4.05869672 175.363982,4.65536598 L74.8565893,96.3498444 L31.0778002,63.1181557 C27.0024197,60.0246398 21.3020866,60.2780499 17.5170718,63.7211005 L3.47578059,76.4937075 C-1.15402423,80.7052561 -1.15933349,87.9889043 3.46431538,92.2072265 L41.430759,126.844525 L3.46431538,161.482221 C-1.15933349,165.700742 -1.15402423,172.984291 3.47578059,177.19584 L17.5170718,189.967949 C21.3020866,193.411497 27.0024197,193.664509 31.0778002,190.571591 L74.8565893,157.339404 L175.363982,249.034221 C176.953772,250.625007 178.82048,251.823326 180.82764,252.605272 Z M191.291764,68.9559518 L115.029663,126.844525 L191.291764,184.733396 L191.291764,68.9559518 Z" id="path-1"/>
        <linearGradient x1="50.0000484%" y1="-3.91645412e-07%" x2="50.0000484%" y2="99.999921%" id="linearGradient-3">
            <stop stop-color="#FFFFFF" offset="0%"/>
            <stop stop-color="#FFFFFF" stop-opacity="0" offset="100%"/>
        </linearGradient>
    </defs>
    <g>
				<mask id="mask-2" fill="white">
						<use xlink:href="#path-1"/>
				</mask>
				<g/>
				<path d="M246.134784,26.873337 L193.593025,1.57523773 C187.51178,-1.35300582 180.243173,-0.117807811 175.469819,4.65514684 L3.46641717,161.482221 C-1.16004072,165.700742 -1.1547215,172.984291 3.47789235,177.19584 L17.5276804,189.967949 C21.3150858,193.411497 27.0189053,193.664509 31.0966765,190.571591 L238.228667,33.4363005 C245.177523,28.1646927 255.158535,33.1209324 255.158535,41.8432608 L255.158535,41.2332436 C255.158535,35.11066 251.651235,29.5293619 246.134784,26.873337 Z" fill="#0065A9" fill-rule="nonzero" mask="url(#mask-2)"/>
				<path d="M246.134784,226.816011 L193.593025,252.11419 C187.51178,255.041754 180.243173,253.806579 175.469819,249.034221 L3.46641717,92.2070273 C-1.16004072,87.9888047 -1.1547215,80.7049573 3.47789235,76.4935082 L17.5276804,63.7209012 C21.3150858,60.2778506 27.0189053,60.0243409 31.0966765,63.1179565 L238.228667,220.252649 C245.177523,225.524058 255.158535,220.568416 255.158535,211.84549 L255.158535,212.456104 C255.158535,218.57819 251.651235,224.159388 246.134784,226.816011 Z" fill="#007ACC" fill-rule="nonzero" mask="url(#mask-2)"/>
				<path d="M193.428324,252.134497 C187.345086,255.060069 180.076479,253.823898 175.303125,249.050544 C181.184153,254.931571 191.240868,250.765843 191.240868,242.448334 L191.240868,11.2729623 C191.240868,2.95542269 181.184153,-1.21005093 175.303125,4.67135981 C180.076479,-0.102038107 187.345086,-1.3389793 193.428324,1.58667934 L245.961117,26.8500144 C251.481553,29.5046448 254.991841,35.0879351 254.991841,41.2132082 L254.991841,212.509283 C254.991841,218.634357 251.481553,224.217548 245.961117,226.872178 L193.428324,252.134497 Z" fill="#1F9CF0" fill-rule="nonzero" mask="url(#mask-2)"/>
				<path d="M180.827889,252.605272 C184.8442,254.169163 189.424309,254.069552 193.477476,252.11917 L245.978395,226.855855 C251.495842,224.201225 255.004138,218.618034 255.004138,212.49296 L255.004138,41.1969853 C255.004138,35.0717121 251.495842,29.4884219 245.979391,26.8337915 L193.477476,1.57052613 C188.158255,-0.989423064 181.931578,-0.362396387 177.261819,3.03217656 C176.595422,3.51710232 175.959904,4.05852738 175.363235,4.65519664 L74.8565395,96.3496452 L31.0777504,63.1179565 C27.0024695,60.0244405 21.3020368,60.2779503 17.517022,63.7209012 L3.4757806,76.4935082 C-1.15402423,80.7050569 -1.15933349,87.9888047 3.46431539,92.2071269 L41.4308088,126.844525 L3.46431539,161.482221 C-1.15933349,165.700742 -1.15402423,172.984291 3.4757806,177.19584 L17.517022,189.967949 C21.3020368,193.411497 27.0024695,193.664509 31.0777504,190.571591 L74.8565395,157.339404 L175.363235,249.034221 C176.953025,250.625007 178.820729,251.823326 180.827889,252.605272 Z M191.292013,68.9557526 L115.029912,126.844525 L191.292013,184.733396 L191.292013,68.9557526 Z" fill-opacity="0.25" fill="url(#linearGradient-3)" mask="url(#mask-2)"/>
		</g>
</svg>
